images/people/people-19.svg

<?xml version="1.0" standalone="no"?><!DOCTYPE svg PUBLIC "-//W3C//DTD SVG 1.1//EN" "http://www.w3.org/Graphics/SVG/1.1/DTD/svg11.dtd"><svg width="120px" height="192px" version="1.1" xmlns="http://www.w3.org/2000/svg" xmlns:xlink="http://www.w3.org/1999/xlink" xml:space="preserve" style="fill-rule:evenodd;clip-rule:evenodd;stroke-linejoin:round;stroke-miterlimit:1.41421;"><g><g id="people-19" transform="matrix(1,0,0,1,-243.375,-48)"><g transform="matrix(1,0,0,1,0,-12)"><path d="M320.269,222.258l1.396,-9.402l-38.828,-0.036l1.499,9.479l35.933,-0.041Z" style="fill:#c1beba;fill-rule:nonzero;"/></g><g transform="matrix(1,0,0,1,0,-12)"><path d="M320.269,222.227l1.396,-9.402l-38.828,-0.036l1.499,9.479l35.933,-0.041Z" style="fill:#171817;fill-opacity:0.25;fill-rule:nonzero;"/></g><g transform="matrix(1,0,0,1,0,-12)"><path d="M284.186,244.198l0,-4.2l17.147,-0.056l0.719,4.273l-17.866,-0.017Z" style="fill:#c1beba;fill-rule:nonzero;"/></g><g transform="matrix(1,0,0,1,0,-12)"><path d="M321.718,244.198l0,-4.2l-17.147,-0.056l-0.719,4.273l17.866,-0.017Z" style="fill:#c1beba;fill-rule:nonzero;"/></g><g transform="matrix(1,0,0,1,0,-12)"><path d="M320.06,213.028l4.399,-42.402l-44.834,-0.036l4.502,42.479l35.933,-0.041Z" style="fill:#d8d3cb;fill-rule:nonzero;"/></g><g transform="matrix(1,0,0,1,0,-12)"><path d="M320.496,202.866l-1.244,1.289l0.046,46.008l1.381,1.837l2.252,0l1.334,-2.07l-0.183,-46.008l-1.38,-1.056l-2.206,0Z" style="fill:#2a2b2a;fill-rule:nonzero;"/></g><g transform="matrix(1,0,0,1,0,-12)"><path d="M281.002,202.866l-1.243,1.289l0.046,46.008l1.38,1.837l2.253,0l1.334,-2.07l-0.183,-46.008l-1.38,-1.056l-2.207,0Z" style="fill:#2a2b2a;fill-rule:nonzero;"/></g><g transform="matrix(1,0,0,1,0,-12)"><path d="M295.041,175.75l4.799,-1.888l10.424,-0.406l-1.975,-8.332l-12.688,-0.233l-0.56,10.859Z" style="fill:#2a2b2a;fill-rule:nonzero;"/></g><g transform="matrix(1,0,0,1,0,-12)"><path d="M295.979,173.805l2.554,-1.703l1.857,-5.265l4.292,1.223l1.361,3.346l2.942,1.47l-1.858,6.116l-8.748,0.233l-2.4,-5.42Z" style="fill:#553f37;fill-rule:nonzero;"/></g><g transform="matrix(1,0,0,1,0,-12)"><path d="M300.301,170.589l3.864,0l4.162,-5.351l-0.744,-11.446l-7.423,-1.24l-4.614,1.835l0.149,10.851l4.606,5.351Z" style="fill:#72594b;fill-rule:nonzero;"/></g><g transform="matrix(1,0,0,1,0,-12)"><path d="M301.417,149.167l8.583,2.708l4.707,23.208l-4.851,5.167l0.059,-5.574l-0.31,-1.646l-1.491,-7.529l-1.864,-9.501l-5.103,-2.083l0.27,-4.75Z" style="fill:#2a2b2a;fill-rule:nonzero;"/></g><g transform="matrix(1,0,0,1,0,-12)"><path d="M301.233,153.917l-5.022,1.887l-0.588,22.196l-4.248,-0.749l0.832,-23.918l9.334,-4.25l-0.308,4.834Z" style="fill:#2a2b2a;fill-rule:nonzero;"/></g><g transform="matrix(1,0,0,1,0,-12)"><path d="M314.716,175.198l-5.701,-2.352l-6.271,5.719l-6.764,-4.877l-5.189,3.563l3.485,4.605l-0.693,18.394l-2.645,18.25l23.625,0l-3.062,-17.917l0.332,-20.001l2.883,-5.384Z" style="fill:#ecdbb1;fill-rule:nonzero;"/></g><g transform="matrix(1,0,0,1,0,-12)"><path d="M293.581,205.249l-0.58,29.062l5.187,1.084l2.868,-30.575" style="fill:#72594b;fill-rule:nonzero;"/></g><g transform="matrix(1,0,0,1,0,-12)"><path d="M292.963,234.273l-1.715,5.726l8.543,0l-1.5,-5.708l-5.328,-0.018Z" style="fill:#f4f2ed;fill-rule:nonzero;"/></g><g transform="matrix(1,0,0,1,0,-12)"><path d="M303.598,204.881l3.729,29.809l4.761,0.385l-0.672,-30.406l-7.818,0.212Z" style="fill:#72594b;fill-rule:nonzero;"/></g><g transform="matrix(1,0,0,1,0,-12)"><path d="M307.172,234.607l-1.715,5.726l8.543,0l-1.5,-5.708l-5.328,-0.018Z" style="fill:#f4f2ed;fill-rule:nonzero;"/></g><g transform="matrix(1,0,0,1,0,-12)"><path d="M290.875,218.5l23.625,0l-3.031,-18.125l-17.875,0l-2.719,18.125Z" style="fill:#f6f1e1;fill-rule:nonzero;"/></g><g transform="matrix(1,0,0,1,0,-12)"><path d="M294.394,181.798l-2.456,15.202l3.917,8.542l-2.647,2.791l-5.052,-10.88l2.727,-20.106l3.511,4.451Z" style="fill:#72594b;fill-rule:nonzero;"/></g><g transform="matrix(1,0,0,1,0,-12)"><path d="M293.186,208.265l5.354,1.693l7.167,-0.568l-1.124,-2.727l-6.105,0l1.846,0.052l-0.304,-2.445l-4.698,1.464l-2.136,2.531Z" style="fill:#72594b;fill-rule:nonzero;"/></g><g transform="matrix(1,0,0,1,0,-12)"><path d="M311.75,180.582l7.625,12.043l0.125,10.709l3.416,-0.375l0.001,-11.126l-8.196,-16.674l-2.971,5.423Z" style="fill:#72594b;fill-rule:nonzero;"/></g><g transform="matrix(1,0,0,1,0,-12)"><path d="M326.937,201.812l0.187,7.5l-3.041,0.479l-0.021,-4.104l-7.051,1.705l-0.449,-3.455l10.375,-2.125Z" style="fill:#72594b;fill-rule:nonzero;"/></g></g></g></svg>

<?xml version="1.0" encoding="UTF-8" standalone="no"?>
<!DOCTYPE svg PUBLIC "-//W3C//DTD SVG 1.1//EN" "http://www.w3.org/Graphics/SVG/1.1/DTD/svg11.dtd">
<svg width="100%" height="100%" viewBox="0 0 140 220" version="1.1" xmlns="http://www.w3.org/2000/svg" xmlns:xlink="http://www.w3.org/1999/xlink" xml:space="preserve" xmlns:serif="http://www.serif.com/" style="fill-rule:evenodd;clip-rule:evenodd;stroke-linejoin:round;stroke-miterlimit:2;">
    <g id="people-19" transform="matrix(1.27,0,0,1.27,-315.286,-84.8)">
        <g transform="matrix(1,0,0,1,0,-12)">
            <path d="M320.269,222.258L321.665,212.856L282.837,212.82L284.336,222.299L320.269,222.258Z" style="fill:rgb(193,190,186);fill-rule:nonzero;"/>
        </g>
        <g transform="matrix(1,0,0,1,0,-12)">
            <path d="M320.269,222.227L321.665,212.825L282.837,212.789L284.336,222.268L320.269,222.227Z" style="fill:rgb(23,24,23);fill-opacity:0.25;fill-rule:nonzero;"/>
        </g>
        <g transform="matrix(1,0,0,1,0,-12)">
            <path d="M284.186,244.198L284.186,239.998L301.333,239.942L302.052,244.215L284.186,244.198Z" style="fill:rgb(193,190,186);fill-rule:nonzero;"/>
        </g>
        <g transform="matrix(1,0,0,1,0,-12)">
            <path d="M321.718,244.198L321.718,239.998L304.571,239.942L303.852,244.215L321.718,244.198Z" style="fill:rgb(193,190,186);fill-rule:nonzero;"/>
        </g>
        <g transform="matrix(1,0,0,1,0,-12)">
            <path d="M320.061,213.028L324.46,170.626L279.626,170.59L284.128,213.069L320.061,213.028Z" style="fill:rgb(216,211,203);fill-rule:nonzero;"/>
        </g>
        <g transform="matrix(1,0,0,1,0,-12)">
            <path d="M320.496,202.866L319.252,204.155L319.298,250.163L320.679,252L322.931,252L324.265,249.93L324.082,203.922L322.702,202.866L320.496,202.866Z" style="fill:rgb(42,43,42);fill-rule:nonzero;"/>
        </g>
        <g transform="matrix(1,0,0,1,0,-12)">
            <path d="M281.002,202.866L279.759,204.155L279.805,250.163L281.185,252L283.438,252L284.772,249.93L284.589,203.922L283.209,202.866L281.002,202.866Z" style="fill:rgb(42,43,42);fill-rule:nonzero;"/>
        </g>
        <g transform="matrix(1,0,0,1,0,-12)">
            <path d="M295.041,175.75L299.84,173.862L310.264,173.456L308.289,165.124L295.601,164.891L295.041,175.75Z" style="fill:rgb(42,43,42);fill-rule:nonzero;"/>
        </g>
        <g transform="matrix(1,0,0,1,0,-12)">
            <path d="M295.979,173.805L298.533,172.102L300.39,166.837L304.682,168.06L306.044,171.406L308.986,172.876L307.128,178.992L298.379,179.225L295.979,173.805Z" style="fill:rgb(85,63,55);fill-rule:nonzero;"/>
        </g>
        <g transform="matrix(1,0,0,1,0,-12)">
            <path d="M300.301,170.589L304.165,170.589L308.327,165.238L307.583,153.792L300.16,152.552L295.546,154.387L295.695,165.238L300.301,170.589Z" style="fill:rgb(114,89,75);fill-rule:nonzero;"/>
        </g>
        <g transform="matrix(1,0,0,1,0,-12)">
            <path d="M301.417,149.167L310,151.875L314.707,175.083L309.856,180.25L309.915,174.676L309.605,173.03L308.114,165.501L306.25,156L301.147,153.917L301.417,149.167Z" style="fill:rgb(42,43,42);fill-rule:nonzero;"/>
        </g>
        <g transform="matrix(1,0,0,1,0,-12)">
            <path d="M301.233,153.917L296.211,155.804L295.623,178L291.375,177.251L292.207,153.333L301.541,149.083L301.233,153.917Z" style="fill:rgb(42,43,42);fill-rule:nonzero;"/>
        </g>
        <g transform="matrix(1,0,0,1,0,-12)">
            <path d="M314.716,175.198L309.015,172.846L302.744,178.565L295.98,173.688L290.791,177.251L294.276,181.856L293.583,200.25L290.938,218.5L314.563,218.5L311.501,200.583L311.833,180.582L314.716,175.198Z" style="fill:rgb(236,219,177);fill-rule:nonzero;"/>
        </g>
        <g transform="matrix(1,0,0,1,0,-12)">
            <path d="M293.581,205.249L293.001,234.311L298.188,235.395L301.056,204.82" style="fill:rgb(114,89,75);fill-rule:nonzero;"/>
        </g>
        <g transform="matrix(1,0,0,1,0,-12)">
            <path d="M292.963,234.273L291.248,239.999L299.791,239.999L298.291,234.291L292.963,234.273Z" style="fill:rgb(244,242,237);fill-rule:nonzero;"/>
        </g>
        <g transform="matrix(1,0,0,1,0,-12)">
            <path d="M303.598,204.881L307.327,234.69L312.088,235.075L311.416,204.669L303.598,204.881Z" style="fill:rgb(114,89,75);fill-rule:nonzero;"/>
        </g>
        <g transform="matrix(1,0,0,1,0,-12)">
            <path d="M307.172,234.607L305.457,240.333L314,240.333L312.5,234.625L307.172,234.607Z" style="fill:rgb(244,242,237);fill-rule:nonzero;"/>
        </g>
        <g transform="matrix(1,0,0,1,0,-12)">
            <path d="M290.875,218.5L314.5,218.5L311.469,200.375L293.594,200.375L290.875,218.5Z" style="fill:rgb(246,241,225);fill-rule:nonzero;"/>
        </g>
        <g transform="matrix(1,0,0,1,0,-12)">
            <path d="M294.394,181.798L291.938,197L295.855,205.542L293.208,208.333L288.156,197.453L290.883,177.347L294.394,181.798Z" style="fill:rgb(114,89,75);fill-rule:nonzero;"/>
        </g>
        <g transform="matrix(1,0,0,1,0,-12)">
            <path d="M293.186,208.265L298.54,209.958L305.708,209.39L304.583,206.663L298.478,206.663L300.324,206.715L300.02,204.27L295.323,205.734L293.186,208.265Z" style="fill:rgb(114,89,75);fill-rule:nonzero;"/>
        </g>
        <g transform="matrix(1,0,0,1,0,-12)">
            <path d="M311.75,180.582L319.375,192.625L319.5,203.334L322.916,202.959L322.917,191.833L314.721,175.159L311.75,180.582Z" style="fill:rgb(114,89,75);fill-rule:nonzero;"/>
        </g>
        <g transform="matrix(1,0,0,1,0,-12)">
            <path d="M326.937,201.813L327.124,209.313L324.083,209.792L324.062,205.688L317.011,207.393L316.562,203.938L326.937,201.813Z" style="fill:rgb(114,89,75);fill-rule:nonzero;"/>
        </g>
    </g>
</svg>
